X: 2
T: The Wild Irishman
R: reel
M: 4/4
L: 1/8
K: Dmaj
d2fa gefd|Adfd Acec|d2fa gefd|fgec dAFA|d2fa gefd|Adfd Acec|defd efgb|afge dgfg||edcB ABcd|eA~A2 eAfg|edcA EAce|fa[eg][ce] dcfg|edcB ABcd|eA~A2 egfg|edcA EAce|fa[eg][ce] dAFA|


Tune 1027	Setting 24921

